X:1
T:Voltage Reel
C:Heifer Zephyr (original, MIT license)
M:4/4
L:1/8
Q:1/4=120
K:Edor
|: E2 ^F2 G2 A2 | B4 A2 G2 | ^F2 G2 A2 B2 | E6 z2 |
   B2 c2 d2 e2 | g4 e2 d2 | c2 B2 A2 ^F2 | E8 :|
|: e2 d2 B2 G2 | A4 B4 | c2 d2 e2 d2 | B4 A4 |
   G2 A2 B2 c2 | d4 e2 d2 | B2 A2 ^F2 G2 | E8 :|
